neru-light-classic/22x22/panel/stock_weather-cloudy.svg

<svg xmlns="http://www.w3.org/2000/svg" width="22" height="22" version="1.1">
 <defs>
  <style id="current-color-scheme" type="text/css">
   .ColorScheme-Text { color:#1e333d; } .ColorScheme-Highlight { color:#3fb7ff; }
  </style>
 </defs>
 <g transform="translate(-81.000004,-705.29)">
  <path style="fill:currentColor" class="ColorScheme-Text" d="M 11 4 C 8.92893 4 7.16529 5.26792 6.40625 7.0625 C 4.47842 7.3491 3 8.99242 3 11 C 3 13.20914 4.79086 15 7 15 L 7.40625 15 C 7.86012 14.19875 8.64718 13.57265 9.53125 13.3125 C 10.15098 11.99047 11.50599 10.9742 13 11 C 14.90766 10.9693 16.58166 12.48472 16.875 14.34375 C 17.01792 14.38895 17.14425 14.43455 17.28125 14.5 C 18.31154 13.89085 19 12.7836 19 11.5 C 19 9.70346 17.64921 8.2313 15.90625 8.03125 C 15.45168 5.73786 13.42687 4 11 4 z M 13 12 C 11.68832 12 10.59518 12.85843 10.1875 14.03125 C 8.95667 14.18722 8 15.22682 8 16.5 C 8 17.88071 9.11929 19 10.5 19 L 16 19 C 17.10457 19 18 18.10457 18 17 C 18 15.89543 17.10457 15 16 15 C 16 13.34315 14.65685 12 13 12 z" transform="translate(81.000004,705.29)"/>
 </g>
</svg>

<svg xmlns="http://www.w3.org/2000/svg" width="22" height="22"><defs><style id="current-color-scheme" type="text/css"></style></defs><path d="M11 4C8.929 4 7.165 5.268 6.406 7.063A3.981 3.981 0 0 0 3 11a4 4 0 0 0 4 4h.406a3.68 3.68 0 0 1 2.125-1.688C10.151 11.99 11.506 10.974 13 11c1.908-.03 3.582 1.485 3.875 3.344.143.045.27.09.406.156a3.471 3.471 0 0 0 1.719-3 3.49 3.49 0 0 0-3.094-3.469A5.011 5.011 0 0 0 11 4zm2 8c-1.312 0-2.405.858-2.813 2.031A2.494 2.494 0 0 0 10.5 19H16a2 2 0 1 0 0-4 3 3 0 0 0-3-3z" fill="currentColor" color="#1e333d"/></svg>
